img/svg/doc.svg

<?xml version="1.0" encoding="utf-8"?><!DOCTYPE svg PUBLIC "-//W3C//DTD SVG 1.1//EN" "http://www.w3.org/Graphics/SVG/1.1/DTD/svg11.dtd"><svg version="1.1" baseProfile="full" xmlns="http://www.w3.org/2000/svg" xmlns:xlink="http://www.w3.org/1999/xlink" xmlns:ev="http://www.w3.org/2001/xml-events"   height="16px"   width="13px" ><path fill="rgb( 0, 0, 0 )" d="M9.50700000000001,0.202 C9.50700000000001,0.202 1.74299999999999,0.202 1.74299999999999,0.202 C1.221,0.202 0.79700000000003,0.63099999999997 0.79700000000003,1.15800000000002 C0.79700000000003,1.15800000000002 0.79700000000003,14.844 0.79700000000003,14.844 C0.79700000000003,15.372 1.221,15.801 1.74299999999999,15.801 C1.74299999999999,15.801 11.254,15.801 11.254,15.801 C11.776,15.801 12.2,15.372 12.2,14.844 C12.2,14.844 12.2,3.16000000000003 12.2,3.16000000000003 C12.2,3.16000000000003 9.50700000000001,0.202 9.50700000000001,0.202 ZM9.73099999999999,1.63299999999998 C9.73099999999999,1.63299999999998 10.911,2.93000000000001 10.911,2.93000000000001 C10.911,2.93000000000001 9.73099999999999,2.93000000000001 9.73099999999999,2.93000000000001 C9.73099999999999,2.93000000000001 9.73099999999999,1.63299999999998 9.73099999999999,1.63299999999998 ZM11.405,14.844 C11.405,14.928 11.337,14.997 11.254,14.997 C11.254,14.997 1.74299999999999,14.997 1.74299999999999,14.997 C1.65899999999999,14.997 1.59100000000001,14.928 1.59100000000001,14.844 C1.59100000000001,14.844 1.59100000000001,1.15800000000002 1.59100000000001,1.15800000000002 C1.59100000000001,1.07400000000001 1.65899999999999,1.00599999999997 1.74299999999999,1.00599999999997 C1.74299999999999,1.00599999999997 8.93599999999998,1.00599999999997 8.93599999999998,1.00599999999997 C8.93599999999998,1.00599999999997 8.93599999999998,3.33199999999999 8.93599999999998,3.33199999999999 C8.93599999999998,3.553 9.11500000000001,3.733 9.33300000000003,3.733 C9.33300000000003,3.733 11.405,3.733 11.405,3.733 C11.405,3.733 11.405,14.844 11.405,14.844 ZM2.99299999999999,4.47399999999999 C2.99299999999999,4.47399999999999 9.73899999999998,4.47399999999999 9.73899999999998,4.47399999999999 C9.904,4.47399999999999 10.037,4.60899999999998 10.037,4.77499999999998 C10.037,4.94099999999997 9.904,5.07600000000002 9.73899999999998,5.07600000000002 C9.73899999999998,5.07600000000002 2.99299999999999,5.07600000000002 2.99299999999999,5.07600000000002 C2.82799999999997,5.07600000000002 2.69499999999999,4.94099999999997 2.69499999999999,4.77499999999998 C2.69499999999999,4.60899999999998 2.82799999999997,4.47399999999999 2.99299999999999,4.47399999999999 ZM10.037,6.79700000000003 C10.037,6.964 9.904,7.09800000000001 9.73899999999998,7.09800000000001 C9.73899999999998,7.09800000000001 2.99299999999999,7.09800000000001 2.99299999999999,7.09800000000001 C2.82799999999997,7.09800000000001 2.69499999999999,6.964 2.69499999999999,6.79700000000003 C2.69499999999999,6.63099999999997 2.82799999999997,6.49700000000001 2.99299999999999,6.49700000000001 C2.99299999999999,6.49700000000001 9.73899999999998,6.49700000000001 9.73899999999998,6.49700000000001 C9.904,6.49700000000001 10.037,6.63099999999997 10.037,6.79700000000003 ZM10.037,8.75400000000002 C10.037,8.92000000000002 9.904,9.05500000000001 9.73899999999998,9.05500000000001 C9.73899999999998,9.05500000000001 2.99299999999999,9.05500000000001 2.99299999999999,9.05500000000001 C2.82799999999997,9.05500000000001 2.69499999999999,8.92000000000002 2.69499999999999,8.75400000000002 C2.69499999999999,8.58800000000002 2.82799999999997,8.45299999999997 2.99299999999999,8.45299999999997 C2.99299999999999,8.45299999999997 9.73899999999998,8.45299999999997 9.73899999999998,8.45299999999997 C9.904,8.45299999999997 10.037,8.58800000000002 10.037,8.75400000000002 ZM10.037,10.743 C10.037,10.909 9.904,11.044 9.73899999999998,11.044 C9.73899999999998,11.044 2.99299999999999,11.044 2.99299999999999,11.044 C2.82799999999997,11.044 2.69499999999999,10.909 2.69499999999999,10.743 C2.69499999999999,10.577 2.82799999999997,10.442 2.99299999999999,10.442 C2.99299999999999,10.442 9.73899999999998,10.442 9.73899999999998,10.442 C9.904,10.442 10.037,10.577 10.037,10.743 Z "/></svg>

<svg baseProfile="full" xmlns="http://www.w3.org/2000/svg" height="16" width="13"><path fill="rgb( 0, 0, 0 )" d="M9.507.202h-7.764c-.522 0-.946.429-.946.956v13.686c0 .528.424.957.946.957h9.511c.522 0 .946-.429.946-.957v-11.684l-2.693-2.958zm.224 1.431l1.18 1.297h-1.18v-1.297zm1.674 13.211c0 .084-.068.153-.151.153h-9.511c-.084 0-.152-.069-.152-.153v-13.686c0-.084.068-.152.152-.152h7.193v2.326c0 .221.179.401.397.401h2.072v11.111zm-8.412-10.37h6.746c.165 0 .298.135.298.301 0 .166-.133.301-.298.301h-6.746c-.165 0-.298-.135-.298-.301 0-.166.133-.301.298-.301zm7.044 2.323c0 .167-.133.301-.298.301h-6.746c-.165 0-.298-.134-.298-.301 0-.166.133-.3.298-.3h6.746c.165 0 .298.134.298.3zm0 1.957c0 .166-.133.301-.298.301h-6.746c-.165 0-.298-.135-.298-.301 0-.166.133-.301.298-.301h6.746c.165 0 .298.135.298.301zm0 1.989c0 .166-.133.301-.298.301h-6.746c-.165 0-.298-.135-.298-.301 0-.166.133-.301.298-.301h6.746c.165 0 .298.135.298.301z"/></svg>
